static/assets/images/exchanges/p2b.svg

<svg width="257" height="256" viewBox="0 0 257 256" fill="none" xmlns="http://www.w3.org/2000/svg">
<path fill-rule="evenodd" clip-rule="evenodd" d="M125.593 7.16795e-06H35.9988C31.3894 -0.00294082 26.8247 0.903459 22.5664 2.66727C18.3081 4.43107 14.4397 7.01761 11.1831 10.2787C4.59594 16.8718 0.901494 25.7359 0.901494 35.0873V124.2C0.877346 141.497 4.29486 158.625 10.9551 174.588C17.5538 190.6 27.2658 205.144 39.5281 217.376C43.3498 221.201 47.3959 224.778 51.6409 228.09C50.8188 227.447 50.004 226.794 49.1968 226.13V131.186C49.1968 104.806 56.5071 83.9109 70.8682 68.9251C85.308 53.9394 104.629 46.3247 128.344 46.3247C153.475 46.3247 173.338 53.6958 187.393 68.2965V68.3122C201.369 82.9129 208.443 101.592 208.443 123.886C208.443 137.772 205.857 150.101 200.748 160.545C195.56 171.146 188.501 179.46 179.619 185.275C171.252 190.845 162.057 195.056 152.374 197.754C142.8 200.426 132.676 201.762 122.3 201.762H89.7964V248.786C89.3947 248.648 88.9938 248.509 88.5936 248.367C102.773 253.427 117.735 256.015 132.825 256H221.853C226.483 256 231.042 255.057 235.279 253.328C239.54 251.566 243.409 248.975 246.661 245.706C249.956 242.476 252.552 238.602 254.286 234.327C256.094 230.091 256.958 225.533 256.958 220.897V131.328C256.963 114.081 253.568 97.0022 246.966 81.0683C240.363 65.1343 230.684 50.6577 218.481 38.4664C193.838 13.8149 160.47 7.16795e-06 125.593 7.16795e-06ZM155.432 151.83C148.294 159.374 138.547 163.052 125.758 163.052H89.7964V129.929C89.7964 116.271 93.255 105.12 100.164 96.9557C106.909 88.9402 116.027 85.0268 128.038 85.0268C140.049 85.0268 149.867 88.4845 156.383 95.5491C163.057 102.771 166.287 111.808 166.287 123.257C166.287 134.715 162.656 144.223 155.432 151.83Z" fill="#1DAE68"/>
<path fill-rule="evenodd" clip-rule="evenodd" d="M187.393 68.2965C173.338 53.6958 153.475 46.3247 128.344 46.3247C104.629 46.3247 85.308 53.9394 70.8682 68.9251C56.5071 83.9109 49.1968 104.806 49.1968 131.186V226.13C50.004 226.794 50.8188 227.447 51.6409 228.09L51.6551 228.101C61.0056 235.395 71.3208 241.405 82.3287 245.949C84.3983 246.809 86.4874 247.616 88.5936 248.367C88.9938 248.509 89.3947 248.648 89.7964 248.786V201.762H122.3C132.676 201.762 142.8 200.426 152.374 197.754C162.057 195.056 171.252 190.845 179.619 185.275C188.501 179.46 195.56 171.146 200.748 160.545C205.857 150.101 208.443 137.772 208.443 123.886C208.443 101.592 201.369 82.9129 187.393 68.3122V68.2965ZM125.758 163.052C138.547 163.052 148.294 159.374 155.432 151.83C162.656 144.223 166.287 134.715 166.287 123.257C166.287 111.808 163.057 102.771 156.383 95.5491C149.867 88.4845 140.049 85.0268 128.038 85.0268C116.027 85.0268 106.909 88.9402 100.164 96.9557C93.255 105.12 89.7964 116.271 89.7964 129.929V163.052H125.758Z" fill="white"/>
</svg>

<svg xmlns="http://www.w3.org/2000/svg" fill="none" viewBox="0 0 257 256"><path fill="#1DAE68" fill-rule="evenodd" d="M125.593 0H35.999a35.04 35.04 0 0 0-24.816 10.279C4.596 16.872.901 25.736.901 35.087V124.2a130.4 130.4 0 0 0 10.054 50.388 130.9 130.9 0 0 0 28.573 42.788 131 131 0 0 0 12.113 10.714 127 127 0 0 1-2.444-1.96v-94.944c0-26.38 7.31-47.275 21.671-62.26 14.44-14.987 33.761-22.601 57.476-22.601 25.131 0 44.994 7.37 59.049 21.971v.016c13.976 14.6 21.05 33.28 21.05 55.574 0 13.886-2.586 26.215-7.695 36.659-5.188 10.601-12.247 18.915-21.129 24.73a95.4 95.4 0 0 1-27.245 12.479c-9.574 2.672-19.698 4.008-30.074 4.008H89.796v47.024q-.602-.207-1.202-.419A131.2 131.2 0 0 0 132.825 256h89.028c4.63 0 9.189-.943 13.426-2.672a34.8 34.8 0 0 0 11.382-7.622 33.65 33.65 0 0 0 7.625-11.379c1.808-4.236 2.672-8.794 2.672-13.43v-89.569a131.2 131.2 0 0 0-38.477-92.862C193.838 13.815 160.47 0 125.593 0m29.839 151.83c-7.138 7.544-16.885 11.222-29.674 11.222H89.796v-33.123c0-13.658 3.459-24.809 10.368-32.973 6.745-8.016 15.863-11.93 27.874-11.93s21.829 3.459 28.345 10.523c6.674 7.222 9.904 16.259 9.904 27.708 0 11.458-3.631 20.966-10.855 28.573" clip-rule="evenodd"/><path fill="#fff" fill-rule="evenodd" d="M187.393 68.297c-14.055-14.601-33.918-21.972-59.049-21.972-23.715 0-43.036 7.614-57.476 22.6-14.36 14.986-21.671 35.881-21.671 62.261v94.944q1.21.996 2.444 1.96l.014.011a131.4 131.4 0 0 0 30.674 17.848q3.105 1.29 6.265 2.418.6.213 1.202.419v-47.024H122.3c10.376 0 20.5-1.336 30.074-4.008a95.4 95.4 0 0 0 27.245-12.479c8.882-5.815 15.941-14.129 21.129-24.73 5.109-10.444 7.695-22.773 7.695-36.659 0-22.294-7.074-40.973-21.05-55.574zm-61.635 94.755c12.789 0 22.536-3.678 29.674-11.222 7.224-7.607 10.855-17.115 10.855-28.573 0-11.449-3.23-20.486-9.904-27.708-6.516-7.065-16.334-10.522-28.345-10.522s-21.129 3.913-27.874 11.929c-6.909 8.164-10.368 19.315-10.368 32.973v33.123z" clip-rule="evenodd"/></svg>
